X:5265
T:Saint Annes Reel
M:4/4
O:Shetland
O:Scotland
O:Ireland
R:Reel
Z:Richard Robinson 
%%TUNEURL: http://www.leeds.ac.uk/music/Info/RRTuneBk/gettune/00000ae4.html
%%ID:00000ae4
K:D
e|fedf edcB|A2 FA2D FA|B2GB DBGB|A2 FA2D FA|\
fedf edcB|A2 FA2D FA|B2ed cABc|eddc d3::\
e|f2 fe fedc|B2g2g2gf|edcB ABcd|baa^g a3=g|\
f2fe fedc|Bggf g2gf|edcB ABcd|eddc d3:|
